svgs/sharp-solid/school-circle-exclamation.svg

<svg xmlns="http://www.w3.org/2000/svg" viewBox="0 0 640 512"><!--! Font Awesome Pro 6.6.0 by @fontawesome - https://fontawesome.com License - https://fontawesome.com/license (Commercial License) Copyright 2024 Fonticons, Inc. --><path d="M640 96l0 170.8C608.1 221.6 555.5 192 496 192c-38.5 0-74.2 12.4-103.1 33.4c9.6-14.1 15.1-31.1 15.1-49.4c0-48.6-39.4-88-88-88s-88 39.4-88 88s39.4 88 88 88c15.6 0 30.2-4 42.9-11.1c-23.4 27.1-38.8 61.4-42.2 99.1l-.7 0c-35.3 0-64 28.7-64 64l0 96L0 512 0 96l160 0L320 0 480 96l160 0zM144 192l-64 0 0 96 64 0 0-96zm0 128l-64 0 0 96 64 0 0-96zM336 128l0 16 0 16 16 0 16 0 0 32-16 0-32 0-16 0 0-16 0-32 0-16 32 0zm160 96a144 144 0 1 1 0 288 144 144 0 1 1 0-288zm16 224l0-32-32 0 0 32 32 0zm0-176l-32 0 0 16 0 80 0 16 32 0 0-16 0-80 0-16z"/></svg>

<svg xmlns="http://www.w3.org/2000/svg" viewBox="0 0 640 512"><!--! Font Awesome Pro 6.5.2 by @fontawesome - https://fontawesome.com License - https://fontawesome.com/license (Commercial License) Copyright 2024 Fonticons, Inc. --><path d="M640 96V266.8C608.1 221.6 555.5 192 496 192c-38.5 0-74.2 12.4-103.1 33.4c9.6-14.1 15.1-31.1 15.1-49.4c0-48.6-39.4-88-88-88s-88 39.4-88 88s39.4 88 88 88c15.6 0 30.2-4 42.9-11.1c-23.4 27.1-38.8 61.4-42.2 99.1H320c-35.3 0-64 28.7-64 64v96H0V96H160L320 0 480 96H640zM144 192H80v96h64V192zm0 128H80v96h64V320zM336 128v16 16h16 16v32H352 320 304V176 144 128h32zm160 96a144 144 0 1 1 0 288 144 144 0 1 1 0-288zm16 224V416H480v32h32zm0-176H480v16 80 16h32V368 288 272z"/></svg>
